X:2
T:Sakura Sakura (Cherry Blossoms) — D Kurd handpan
C:Traditional Japanese, PD (Edo period)
M:4/4
L:1/4
Q:1/4=66
K:Dmin
%% Uses: A Bb D E — four notes from the D Kurd field circle
A B d2 | A B d2 | A B d e | d B A2 |
A B d e | d B A2 | A d d B | A4 |
